svg/u2611.svg

<svg viewBox="0 0 2600 2760.837" xmlns="http://www.w3.org/2000/svg"><path d="M2290 342q20 0 34.5 14.5t14.5 34.5v1980q0 20-14.5 34.5t-34.5 14.5h-1980q-20 0-34.5-14.5t-14.5-34.5v-1980q0-20 14.5-34.5t34.5-14.5h1980z m-72 120h-1837v1837h1837v-1837z m-1161 1548l-610-607 153-152 457 453 943-952 153 152z"/></svg>

<svg viewBox="0 0 2600 2760.837" xmlns="http://www.w3.org/2000/svg"><path d="M2290 342q20 0 34.5 14.5T2339 391v1980q0 20-14.5 34.5T2290 2420H310q-20 0-34.5-14.5T261 2371V391q0-20 14.5-34.5T310 342h1980zm-72 120H381v1837h1837V462zM1057 2010l-610-607 153-152 457 453 943-952 153 152z"/></svg>
